digitransit-component/packages/digitransit-component-icon/src/assets/bus_stop.svg

<svg viewBox="0 0 1024 1024" xmlns="http://www.w3.org/2000/svg" xmlns:xlink="http://www.w3.org/1999/xlink">
	<path class="path1" d="M56.882-0.007c31.422 0 56.89 25.468 56.89 56.89v967.128h-113.779v-967.128c0-31.422 25.468-56.89 56.89-56.89z"></path>
	<path class="path2" d="M199.107 199.107h142.224v85.335h-142.224v-85.335z"></path>
	<path class="path3" d="M199.107 312.886h654.231v28.445h-654.231v-28.445z"></path>
	<path class="path4" d="M369.776 199.107h142.224v85.335h-142.224v-85.335z"></path>
	<path class="path5" d="M540.445 199.107h142.224v85.335h-142.224v-85.335z"></path>
	<path class="path6" d="M967.118 56.882h-910.235v512.007h910.235c31.422 0 56.89-25.468 56.89-56.89v-398.228c0-31.422-25.468-56.89-56.89-56.89zM881.783 398.221c0 15.711-12.734 28.445-28.445 28.445h-59.371c1.579 4.454 2.482 9.226 2.482 14.222 0 23.564-19.103 42.667-42.667 42.667s-42.667-19.103-42.667-42.667c0-4.996 0.903-9.768 2.482-14.222h-374.747c1.579 4.454 2.482 9.226 2.482 14.222 0 23.564-19.103 42.667-42.667 42.667s-42.667-19.103-42.667-42.667c0-4.996 0.903-9.768 2.482-14.222h-59.371c-15.711 0-28.445-12.734-28.445-28.445v-199.114c0-15.711 12.734-28.445 28.445-28.445h654.231c15.711 0 28.445 12.734 28.445 28.445v199.114z"></path>
	<path class="path7" d="M711.114 199.107h142.224v85.335h-142.224v-85.335z"></path>
</svg>

<svg xmlns="http://www.w3.org/2000/svg" viewBox="0 0 1024 1024">
 <path d="M56.882-.007c31.422 0 56.89 25.468 56.89 56.89v967.128H-.007V56.883c0-31.422 25.468-56.89 56.89-56.89z" class="path1"/>
 <path d="M199.107 199.107h142.224v85.335H199.107z" class="path2"/>
 <path d="M199.107 312.886h654.231v28.445H199.107z" class="path3"/>
 <path d="M369.776 199.107H512v85.335H369.776z" class="path4"/>
 <path d="M540.445 199.107h142.224v85.335H540.445z" class="path5"/>
 <path d="M967.118 56.882H56.883v512.007h910.235c31.422 0 56.89-25.468 56.89-56.89V113.771c0-31.422-25.468-56.89-56.89-56.89zm-85.335 341.339c0 15.711-12.734 28.445-28.445 28.445h-59.371c1.579 4.454 2.482 9.226 2.482 14.222 0 23.564-19.103 42.667-42.667 42.667s-42.667-19.103-42.667-42.667c0-4.996.903-9.768 2.482-14.222H338.85c1.579 4.454 2.482 9.226 2.482 14.222 0 23.564-19.103 42.667-42.667 42.667s-42.667-19.103-42.667-42.667c0-4.996.903-9.768 2.482-14.222h-59.371c-15.711 0-28.445-12.734-28.445-28.445V199.107c0-15.711 12.734-28.445 28.445-28.445H853.34c15.711 0 28.445 12.734 28.445 28.445v199.114z" class="path6"/>
 <path d="M711.114 199.107h142.224v85.335H711.114z" class="path7"/>
</svg>
